public/library/bilira-icon-light.svg

<svg width="90" height="31" viewBox="0 0 90 31" fill="none" xmlns="http://www.w3.org/2000/svg">
<g id="Logo">
<g id="Text">
<path id="KronaOne" d="M36.4681 23.3762C37.4566 23.3762 38.3151 23.2675 39.0437 23.0499C39.7722 22.8324 40.3756 22.5207 40.8538 22.1148C41.3321 21.709 41.6883 21.2203 41.9226 20.6489C42.1569 20.0774 42.274 19.4378 42.274 18.73C42.274 17.8858 42.1039 17.1325 41.7637 16.4702C41.4235 15.8078 40.9068 15.2689 40.2135 14.8533C40.8169 14.126 41.1186 13.2785 41.1186 12.311C41.1186 11.7201 41.0015 11.1697 40.7672 10.66C40.5329 10.1502 40.175 9.71026 39.6936 9.34012C39.2122 8.96998 38.6072 8.67938 37.8787 8.46834C37.1501 8.25729 36.2948 8.15177 35.3127 8.15177H27.2729V23.3762H36.4681ZM37.2576 14.0253C37.0073 14.0058 36.7505 13.9961 36.4873 13.9961H30.3252V10.8694H35.3897C36.2113 10.8694 36.8356 11.0204 37.2624 11.3223C37.6893 11.6243 37.9027 12.0512 37.9027 12.6032C37.9027 13.1357 37.6877 13.6097 37.2576 14.0253ZM36.5451 20.6878H30.3252V16.5773H36.5451C37.3667 16.5773 37.991 16.7592 38.4178 17.1228C38.8447 17.4864 39.0581 17.993 39.0581 18.6423C39.0581 19.2917 38.8447 19.795 38.4178 20.1521C37.991 20.5093 37.3667 20.6878 36.5451 20.6878ZM45.426 10.3142C45.7148 10.3142 45.9732 10.2736 46.2011 10.1924C46.429 10.1112 46.6231 10.0008 46.7836 9.86123C46.9441 9.72162 47.0676 9.55928 47.1543 9.37421C47.2409 9.18914 47.2843 8.9927 47.2843 8.78491C47.2843 8.57061 47.2409 8.37093 47.1543 8.18586C47.0676 8.00079 46.9441 7.84007 46.7836 7.70371C46.6231 7.56734 46.429 7.45857 46.2011 7.3774C45.9732 7.29623 45.7148 7.25564 45.426 7.25564C45.1436 7.25564 44.8884 7.29623 44.6605 7.3774C44.4327 7.45857 44.2385 7.56734 44.078 7.70371C43.9175 7.84007 43.794 8.00079 43.7073 8.18586C43.6207 8.37093 43.5773 8.57061 43.5773 8.78491C43.5773 8.9927 43.6207 9.18914 43.7073 9.37421C43.794 9.55928 43.9175 9.72162 44.078 9.86123C44.2385 10.0008 44.4327 10.1112 44.6605 10.1924C44.8884 10.2736 45.1436 10.3142 45.426 10.3142ZM46.851 23.3762V11.8824H44.001V23.3762H46.851ZM61.5763 23.3762V20.6684H52.8241V8.15177H49.7719V23.3762H61.5763ZM64.5935 10.3142C64.8823 10.3142 65.1407 10.2736 65.3686 10.1924C65.5964 10.1112 65.7906 10.0008 65.9511 9.86123C66.1116 9.72162 66.2351 9.55928 66.3218 9.37421C66.4084 9.18914 66.4518 8.9927 66.4518 8.78491C66.4518 8.57061 66.4084 8.37093 66.3218 8.18586C66.2351 8.00079 66.1116 7.84007 65.9511 7.70371C65.7906 7.56734 65.5964 7.45857 65.3686 7.3774C65.1407 7.29623 64.8823 7.25564 64.5935 7.25564C64.3111 7.25564 64.0559 7.29623 63.828 7.3774C63.6002 7.45857 63.406 7.56734 63.2455 7.70371C63.085 7.84007 62.9615 8.00079 62.8748 8.18586C62.7882 8.37093 62.7448 8.57061 62.7448 8.78491C62.7448 8.9927 62.7882 9.18914 62.8748 9.37421C62.9615 9.55928 63.085 9.72162 63.2455 9.86123C63.406 10.0008 63.6002 10.1112 63.828 10.1924C64.0559 10.2736 64.3111 10.3142 64.5935 10.3142ZM66.0185 23.3762V11.8824H63.1685V23.3762H66.0185ZM71.4331 23.3762V16.5384C71.9531 15.837 72.6287 15.2932 73.4599 14.9068C74.2912 14.5205 75.2556 14.2721 76.3533 14.1617L75.5156 11.522C74.8223 11.7038 74.1259 11.9668 73.4262 12.311C72.7266 12.6551 72.0622 13.0642 71.4331 13.5383V11.8824H68.5831V23.3762H71.4331ZM82.2204 23.5808C82.7468 23.5808 83.2459 23.5467 83.7176 23.4785C84.1894 23.4103 84.6307 23.3178 85.0416 23.2009C85.4524 23.084 85.8327 22.9476 86.1825 22.7918C86.5324 22.6359 86.8549 22.4704 87.1502 22.295V23.3762H90.0002V18.3696C90.0002 16.1033 89.4835 14.4214 88.45 13.324C87.4166 12.2266 85.8375 11.6778 83.7128 11.6778C83.2314 11.6778 82.7339 11.7038 82.2204 11.7558C81.7069 11.8077 81.1934 11.8808 80.6799 11.9749C80.1664 12.0691 79.6641 12.1811 79.173 12.311C78.682 12.4409 78.2214 12.5837 77.7914 12.7396L78.6579 15.1065C79.0045 14.9442 79.3784 14.8046 79.7796 14.6877C80.1808 14.5708 80.5868 14.4734 80.9976 14.3955C81.4084 14.3175 81.8064 14.2591 82.1915 14.2201C82.5767 14.1812 82.9297 14.1617 83.2507 14.1617C83.8412 14.1617 84.3692 14.2234 84.8345 14.3467C85.2999 14.4701 85.6979 14.6438 86.0285 14.8679C86.359 15.0919 86.6174 15.3581 86.8036 15.6666C86.9897 15.975 87.0988 16.3111 87.1309 16.6747C86.3093 16.4604 85.5117 16.3013 84.7383 16.1974C83.9648 16.0935 83.2282 16.0416 82.5285 16.0416C81.585 16.0416 80.7585 16.1309 80.0492 16.3095C79.3399 16.488 78.7478 16.7413 78.2728 17.0692C77.7978 17.3972 77.4415 17.7884 77.204 18.243C76.9665 18.6975 76.8478 19.2008 76.8478 19.7527C76.8478 20.2982 76.9617 20.8031 77.1896 21.2674C77.4175 21.7317 77.7561 22.1359 78.2054 22.4801C78.6547 22.8243 79.2148 23.0937 79.8855 23.2886C80.5563 23.4834 81.3346 23.5808 82.2204 23.5808ZM82.4708 21.0969C82.0022 21.0969 81.6026 21.0564 81.272 20.9752C80.9415 20.894 80.6703 20.7869 80.4584 20.6537C80.2466 20.5206 80.0925 20.368 79.9963 20.1959C79.9 20.0239 79.8518 19.8437 79.8518 19.6553C79.8518 19.48 79.8968 19.3112 79.9866 19.1488C80.0765 18.9865 80.2306 18.8452 80.4488 18.7251C80.667 18.605 80.9527 18.5092 81.3057 18.4378C81.6588 18.3663 82.1017 18.3306 82.6345 18.3306C82.8912 18.3306 83.1913 18.3404 83.5347 18.3598C83.8781 18.3793 84.244 18.4134 84.6324 18.4621C85.0207 18.5108 85.4283 18.5774 85.8552 18.6618C86.282 18.7462 86.7137 18.8501 87.1502 18.9735V19.48C86.9319 19.6878 86.6591 19.8891 86.3318 20.0839C86.0044 20.2787 85.6385 20.4508 85.2341 20.6002C84.8297 20.7495 84.3932 20.8697 83.9247 20.9606C83.4561 21.0515 82.9715 21.0969 82.4708 21.0969Z" fill="#23272E"/>
</g>
<path id="Symbol" fill-rule="evenodd" clip-rule="evenodd" d="M0 0L3.52523 0.945872V27.0772C10.317 26.1529 13.8785 22.0031 14.5742 14.231L14.5944 13.9944L7.00321 11.9123V8.28353L18.1806 11.349L18.1818 13.1321L18.1806 13.1869C18.1648 13.7911 18.1036 14.3759 18.0431 14.9402C17.1427 23.3314 13.1408 27.4584 8.52218 29.3478C5.5722 30.3939 2.73147 30.8886 0 30.832V0ZM6.99918 1.86826L15.2488 4.07961V7.74636L6.99918 5.41217V1.86826Z" fill="url(#paint0_linear_822_3869)"/>
</g>
<defs>
<linearGradient id="paint0_linear_822_3869" x1="0" y1="0" x2="26.9829" y2="15.9097" gradientUnits="userSpaceOnUse">
<stop stop-color="#BAE1EB"/>
<stop offset="0.548203" stop-color="#6061E6"/>
<stop offset="1" stop-color="#006BFF"/>
</linearGradient>
</defs>
</svg>

<svg xmlns="http://www.w3.org/2000/svg" width="90" height="31" fill="none" viewBox="0 0 90 31"><path fill="#23272e" d="M36.468 23.376q1.483 0 2.576-.326 1.093-.327 1.81-.935a3.8 3.8 0 0 0 1.069-1.466q.351-.857.351-1.919 0-1.267-.51-2.26t-1.55-1.617q.905-1.091.905-2.542 0-.886-.352-1.651a3.5 3.5 0 0 0-1.073-1.32q-.723-.554-1.815-.872-1.093-.316-2.566-.316h-8.04v15.224zm.79-9.35q-.376-.03-.77-.03h-6.163V10.87h5.065q1.232 0 1.872.453.64.454.64 1.281 0 .8-.644 1.422m-.713 6.662h-6.22v-4.11h6.22q1.233 0 1.873.545t.64 1.52-.64 1.51-1.873.535m8.881-10.374a2.3 2.3 0 0 0 .775-.122q.342-.12.583-.33t.37-.488q.13-.277.13-.59a1.4 1.4 0 0 0-.5-1.08 1.9 1.9 0 0 0-.583-.327 2.3 2.3 0 0 0-.775-.121q-.423 0-.766.121-.34.122-.582.327-.24.204-.37.482t-.13.599q0 .311.13.59.13.277.37.486.24.21.582.331.343.123.766.122m1.425 13.062V11.882h-2.85v11.494zm14.725 0v-2.708h-8.752V8.152h-3.052v15.224zm3.018-13.062a2.3 2.3 0 0 0 .775-.122q.341-.12.582-.33t.37-.488q.13-.277.13-.59a1.4 1.4 0 0 0-.5-1.08 1.9 1.9 0 0 0-.582-.327 2.3 2.3 0 0 0-.775-.121q-.424 0-.766.121-.342.122-.583.327-.24.204-.37.482t-.13.599q0 .311.13.59.13.277.37.486.241.21.583.331.342.123.766.122m1.425 13.062V11.882h-2.85v11.494zm5.414 0v-6.838a5.2 5.2 0 0 1 2.027-1.631q1.247-.58 2.893-.745l-.837-2.64q-1.04.273-2.09.789t-1.993 1.227v-1.656h-2.85v11.494zm10.787.205q.79 0 1.498-.102.707-.103 1.324-.278.615-.175 1.14-.41.525-.232.968-.496v1.081H90V18.37q0-3.4-1.55-5.046t-4.737-1.646q-.723 0-1.493.078t-1.54.219a20 20 0 0 0-1.507.336q-.737.195-1.382.429l.867 2.367q.519-.244 1.122-.42.6-.175 1.218-.291.615-.118 1.194-.176.578-.058 1.059-.058.885 0 1.584.185.698.185 1.194.52.495.337.775.8.279.462.327 1.008a20 20 0 0 0-2.393-.478 17 17 0 0 0-2.21-.155q-1.415 0-2.479.267-1.064.268-1.776.76t-1.069 1.174a3.2 3.2 0 0 0-.356 1.51q0 .818.342 1.514t1.015 1.213 1.68.809q1.007.291 2.335.292m.25-2.484q-.702 0-1.198-.122a2.8 2.8 0 0 1-.814-.321 1.3 1.3 0 0 1-.462-.458 1.1 1.1 0 0 1-.144-.54q0-.264.135-.507.135-.244.462-.424t.857-.287a7 7 0 0 1 1.329-.107 16 16 0 0 1 1.997.131 18 18 0 0 1 2.518.512v.506q-.326.312-.818.604a6.7 6.7 0 0 1-1.098.516q-.606.225-1.31.36-.703.137-1.453.137"/><path fill="url(#a)" fill-rule="evenodd" d="m0 0 3.525.946v26.131c6.792-.924 10.354-5.074 11.05-12.846l.02-.237-7.592-2.082V8.284l11.178 3.065v1.838a22 22 0 0 1-.138 1.753c-.9 8.391-4.902 12.518-9.52 14.408Q4.096 30.917 0 30.832zm7 1.868 8.249 2.212v3.666l-8.25-2.334z" clip-rule="evenodd"/><defs><linearGradient id="a" x1="0" x2="26.983" y1="0" y2="15.91" gradientUnits="userSpaceOnUse"><stop stop-color="#bae1eb"/><stop offset=".548" stop-color="#6061e6"/><stop offset="1" stop-color="#006bff"/></linearGradient></defs></svg>
